;FLAVOR:Marlin
;TIME:17241
;Filament used: 14.5706m
;Layer height: 0.2
;MINX:81.5
;MINY:81.491
;MINZ:0.2
;MAXX:153.5
;MAXY:153.5
;MAXZ:50
;TARGET_MACHINE.NAME:Creality Ender-3
;Generated with Cura_SteamEngine 5.11.0
M140 S50
M105
M190 S50
M104 S200
M105
M109 S200
; Ender 3 Custom Start G-code
G92 E0 ; Reset Extruder
G28 ; Home all axes
G1 Z2.0 F3000 ; Move Z Axis up little to prevent scratching of Heat Bed
G1 X0.1 Y20 Z0.3 F5000.0 ; Move to start position
G1 X0.1 Y200.0 Z0.3 F1500.0 E15 ; Draw the first line
G1 X0.4 Y200.0 Z0.3 F5000.0 ; Move to side a little
G1 X0.4 Y20 Z0.3 F1500.0 E30 ; Draw the second line
G92 E0 ; Reset Extruder
G1 Z2.0 F3000 ; Move Z Axis up little to prevent scratching of Heat Bed
G1 X5 Y20 Z0.3 F5000.0 ; Move over to prevent blob squish
M82 ;absolute extrusion mode
G92 E0
G92 E0
G1 F2700 E-5
;LAYER_COUNT:250
;LAYER:0
M107
G0 F6000 X84.969 Y84.501 Z0.2
;TYPE:SKIRT
G1 F2700 E0
G1 F1200 X85.679 Y83.887 E0.03122
G1 X86.498 Y83.297 E0.06479
G1 X87.337 Y82.801 E0.09721
G1 X88.151 Y82.41 E0.12724
G1 X89.128 Y82.042 E0.16197
G1 X90.032 Y81.792 E0.19316
G1 X91.034 Y81.609 E0.22704
G1 X92.205 Y81.513 E0.26612
G1 X92.812 Y81.5 E0.28631
G1 X104.738 Y81.5 E0.68297
G1 X105.447 Y81.491 E0.70656
G1 X105.648 Y81.5 E0.71325
G1 X108.79 Y81.492 E0.81775
G1 X108.985 Y81.5 E0.82424
G1 X115.988 Y81.5 E1.05717
G1 X116.87 Y81.492 E1.0865
G1 X117.055 Y81.5 E1.09266
G1 X118.954 Y81.5 E1.15582
G1 X119.269 Y81.491 E1.1663
G1 X119.95 Y81.5 E1.18896
G1 X141.951 Y81.501 E1.92071
G1 X142.684 Y81.513 E1.94509
G1 X143.656 Y81.572 E1.97748
G1 X144.619 Y81.718 E2.00988
G1 X145.566 Y81.949 E2.0423
G1 X146.454 Y82.249 E2.07347
G1 X147.346 Y82.639 E2.10585
G1 X148.229 Y83.126 E2.13939
G1 X148.98 Y83.628 E2.16944
G1 X149.795 Y84.286 E2.20428
G1 X150.493 Y84.964 E2.23664
G1 X151.129 Y85.701 E2.26902
G1 X151.699 Y86.491 E2.30142
G1 X152.161 Y87.267 E2.33146
G1 X152.615 Y88.209 E2.36624
G1 X152.944 Y89.087 E2.39742
G1 X153.213 Y90.059 E2.43097
G1 X153.39 Y91.025 E2.46363
G1 X153.485 Y92.155 E2.50135
G1 X153.5 Y92.83 E2.5238
G1 X153.499 Y141.916 E4.15641
G1 X153.487 Y142.677 E4.18173
G1 X153.429 Y143.65 E4.21415
G1 X153.283 Y144.613 E4.24654
G1 X153.052 Y145.56 E4.27896
G1 X152.739 Y146.482 E4.31135
G1 X152.347 Y147.373 E4.34372
G1 X151.895 Y148.195 E4.37492
G1 X151.333 Y149.033 E4.40848
G1 X150.743 Y149.763 E4.4397
G1 X150.04 Y150.489 E4.47331
G1 X149.304 Y151.125 E4.50567
G1 X148.514 Y151.695 E4.53807
G1 X147.738 Y152.158 E4.56812
G1 X146.798 Y152.611 E4.60283
G1 X145.885 Y152.953 E4.63525
G1 X144.947 Y153.212 E4.66762
G1 X143.981 Y153.389 E4.70028
G1 X142.845 Y153.485 E4.7382
G1 X142.17 Y153.5 E4.76066
G1 X93.049 Y153.499 E6.39443
G1 X92.316 Y153.487 E6.41881
G1 X91.344 Y153.428 E6.4512
G1 X90.381 Y153.282 E6.4836
G1 X89.434 Y153.051 E6.51602
G1 X88.546 Y152.751 E6.54719
G1 X87.654 Y152.361 E6.57957
G1 X86.771 Y151.874 E6.61311
G1 X86.02 Y151.372 E6.64316
G1 X85.205 Y150.714 E6.678
G1 X84.507 Y150.036 E6.71036
G1 X83.871 Y149.299 E6.74274
G1 X83.301 Y148.509 E6.77514
G1 X82.839 Y147.733 E6.80518
G1 X82.385 Y146.791 E6.83996
G1 X82.056 Y145.913 E6.87114
G1 X81.787 Y144.94 E6.90472
G1 X81.61 Y143.973 E6.93742
G1 X81.514 Y142.808 E6.97629
G1 X81.5 Y142.158 E6.99792
G1 X81.501 Y93.009 E8.63262
G1 X81.513 Y92.308 E8.65594
G1 X81.573 Y91.335 E8.68836
G1 X81.72 Y90.374 E8.7207
G1 X81.951 Y89.426 E8.75315
G1 X82.253 Y88.537 E8.78438
G1 X82.66 Y87.615 E8.8179
G1 X83.131 Y86.763 E8.85028
G1 X83.676 Y85.954 E8.88272
G1 X84.267 Y85.226 E8.91391
G1 X84.969 Y84.501 E8.94748
G0 F6000 X85.231 Y84.804
G1 F1200 X85.941 Y84.19 E8.9787
G1 X86.702 Y83.641 E9.00991
G1 X87.51 Y83.162 E9.04115
G1 X88.324 Y82.771 E9.07118
G1 X89.235 Y82.428 E9.10356
G1 X90.139 Y82.178 E9.13476
G1 X91.067 Y82.008 E9.16613
G1 X92.214 Y81.913 E9.20441
G1 X92.821 Y81.9 E9.22461
G1 X104.743 Y81.9 E9.62114
G1 X105.429 Y81.891 E9.64395
G1 X105.631 Y81.9 E9.65068
G1 X108.774 Y81.892 E9.75522
G1 X108.969 Y81.9 E9.76171
G1 X115.992 Y81.9 E9.99529
G1 X116.853 Y81.892 E10.02393
G1 X117.038 Y81.9 E10.03009
G1 X118.966 Y81.9 E10.09422
G1 X119.264 Y81.891 E10.10413
G1 X119.945 Y81.9 E10.12678
G1 X141.945 Y81.901 E10.85851
G1 X142.66 Y81.912 E10.88229
G1 X143.597 Y81.968 E10.91351
G1 X144.525 Y82.107 E10.94472
G1 X145.438 Y82.328 E10.97596
G1 X146.294 Y82.616 E11.006
G1 X147.186 Y83.006 E11.03838
G1 X148.007 Y83.459 E11.06957
G1 X148.758 Y83.961 E11.09961
G1 X149.517 Y84.573 E11.13204
G1 X150.191 Y85.226 E11.16326
G1 X150.805 Y85.935 E11.19445
G1 X151.355 Y86.696 E11.22568
G1 X151.817 Y87.472 E11.25572
G1 X152.24 Y88.349 E11.2881
G1 X152.569 Y89.227 E11.31929
G1 X152.82 Y90.132 E11.35053
G1 X152.991 Y91.059 E11.38188
G1 X153.086 Y92.189 E11.41959
G1 X153.1 Y92.83 E11.44092
G1 X153.099 Y141.91 E13.07333
G1 X153.088 Y142.654 E13.09807
G1 X153.033 Y143.591 E13.12929
G1 X152.894 Y144.519 E13.1605
G1 X152.673 Y145.432 E13.19175
G1 X152.373 Y146.321 E13.22295
G1 X151.996 Y147.18 E13.25415
G1 X151.544 Y148.002 E13.28535
G1 X151.021 Y148.782 E13.31659
G1 X150.455 Y149.485 E13.34661
G1 X149.778 Y150.187 E13.37905
G1 X149.07 Y150.801 E13.41021
G1 X148.309 Y151.351 E13.44144
G1 X147.533 Y151.814 E13.4715
G1 X146.657 Y152.237 E13.50385
G1 X145.778 Y152.568 E13.53509
G1 X144.874 Y152.819 E13.5663
G1 X143.947 Y152.99 E13.59765
G1 X142.811 Y153.086 E13.63557
G1 X142.17 Y153.1 E13.65689
G1 X93.055 Y153.099 E15.29047
G1 X92.34 Y153.088 E15.31425
G1 X91.403 Y153.032 E15.34547
G1 X90.475 Y152.893 E15.37668
G1 X89.562 Y152.672 E15.40792
G1 X88.706 Y152.384 E15.43796
G1 X87.814 Y151.994 E15.47034
G1 X86.993 Y151.541 E15.50153
G1 X86.242 Y151.039 E15.53157
G1 X85.483 Y150.427 E15.564
G1 X84.809 Y149.774 E15.59522
G1 X84.195 Y149.065 E15.62641
G1 X83.645 Y148.304 E15.65764
G1 X83.183 Y147.528 E15.68768
G1 X82.76 Y146.651 E15.72006
G1 X82.431 Y145.773 E15.75125
G1 X82.18 Y144.868 E15.78248
G1 X82.009 Y143.94 E15.81387
G1 X81.913 Y142.775 E15.85275
G1 X81.9 Y142.158 E15.87327
G1 X81.901 Y93.015 E17.50778
G1 X81.912 Y92.332 E17.5305
G1 X81.969 Y91.395 E17.56172
G1 X82.109 Y90.468 E17.5929
G1 X82.33 Y89.555 E17.62414
G1 X82.632 Y88.666 E17.65537
G1 X83.01 Y87.808 E17.68656
G1 X83.463 Y86.986 E17.71777
G1 X83.987 Y86.206 E17.74903
G1 X84.578 Y85.478 E17.78021
G1 X85.231 Y84.804 E17.81143
G0 F6000 X85.493 Y85.106
G1 F1200 X86.175 Y84.514 E17.84146
G1 X86.907 Y83.985 E17.8715
G1 X87.683 Y83.523 E17.90154
G1 X88.497 Y83.132 E17.93158
G1 X89.342 Y82.813 E17.96162
G1 X90.212 Y82.571 E17.99165
G1 X91.1 Y82.407 E18.02169
G1 X92.223 Y82.313 E18.05917
G1 X92.83 Y82.3 E18.07936
G1 X104.748 Y82.3 E18.47576
G1 X105.411 Y82.291 E18.49781
G1 X105.614 Y82.3 E18.50457
G1 X108.758 Y82.292 E18.60914
G1 X108.953 Y82.3 E18.61563
G1 X115.996 Y82.3 E18.84988
G1 X116.836 Y82.292 E18.87782
G1 X117.021 Y82.3 E18.88398
G1 X118.979 Y82.3 E18.9491
G1 X119.259 Y82.291 E18.95842
G1 X119.94 Y82.3 E18.98107
G1 X141.939 Y82.301 E19.71276
G1 X142.637 Y82.311 E19.73598
G1 X143.539 Y82.364 E19.76603
G1 X144.432 Y82.496 E19.79606
G1 X145.31 Y82.707 E19.82609
G1 X146.166 Y82.995 E19.85613
G1 X146.993 Y83.357 E19.88615
G1 X147.785 Y83.792 E19.91621
G1 X148.536 Y84.294 E19.94625
G1 X149.239 Y84.861 E19.97629
G1 X149.889 Y85.488 E20.00633
G1 X150.481 Y86.17 E20.03637
G1 X151.011 Y86.901 E20.0664
G1 X151.473 Y87.677 E20.09644
G1 X151.866 Y88.49 E20.12647
G1 X152.184 Y89.335 E20.1565
G1 X152.427 Y90.205 E20.18654
G1 X152.592 Y91.093 E20.21658
G1 X152.687 Y92.223 E20.2543
G1 X152.7 Y92.83 E20.27449
G1 X152.699 Y141.904 E21.9067
G1 X152.689 Y142.631 E21.93088
G1 X152.637 Y143.533 E21.96094
G1 X152.505 Y144.426 E21.99096
G1 X152.294 Y145.305 E22.02103
G1 X152.007 Y146.161 E22.05105
G1 X151.645 Y146.988 E22.08108
G1 X151.211 Y147.78 E22.11112
G1 X150.709 Y148.531 E22.14116
G1 X150.143 Y149.234 E22.17118
G1 X149.516 Y149.885 E22.20124
G1 X148.835 Y150.477 E22.23125
G1 X148.104 Y151.007 E22.26129
G1 X147.328 Y151.47 E22.29134
G1 X146.515 Y151.863 E22.32137
G1 X145.67 Y152.183 E22.35143
G1 X144.801 Y152.426 E22.38144
G1 X143.913 Y152.591 E22.41148
G1 X142.777 Y152.687 E22.4494
G1 X142.17 Y152.7 E22.46959
G1 X93.061 Y152.699 E24.10296
G1 X92.363 Y152.689 E24.12618
G1 X91.461 Y152.636 E24.15623
G1 X90.568 Y152.504 E24.18626
G1 X89.69 Y152.293 E24.21629
G1 X88.834 Y152.005 E24.24633
G1 X88.007 Y151.643 E24.27636
G1 X87.215 Y151.208 E24.30641
G1 X86.464 Y150.706 E24.33645
G1 X85.761 Y150.139 E24.36649
G1 X85.111 Y149.512 E24.39653
G1 X84.519 Y148.83 E24.42657
G1 X83.989 Y148.099 E24.4566
G1 X83.527 Y147.323 E24.48664
G1 X83.134 Y146.51 E24.51667
G1 X82.816 Y145.665 E24.5467
G1 X82.573 Y144.795 E24.57675
G1 X82.408 Y143.907 E24.60679
G1 X82.313 Y142.766 E24.64487
G1 X82.3 Y142.158 E24.66509
G1 X82.301 Y93.021 E26.2994
G1 X82.311 Y92.356 E26.32152
G1 X82.365 Y91.454 E26.35157
G1 X82.498 Y90.561 E26.3816
G1 X82.709 Y89.683 E26.41163
G1 X82.998 Y88.827 E26.44168
G1 X83.361 Y88 E26.47172
G1 X83.795 Y87.209 E26.50173
G1 X84.298 Y86.458 E26.5318
G1 X84.866 Y85.756 E26.56183
G1 X85.493 Y85.106 E26.59187
G1 F2700 E21.59187
;MESH:CUBO_CAM2.stl
G0 F6000 X92.924 Y91.835
G0 X107.403 Y94.116
;TYPE:WALL-INNER
G1 F2700 E26.59187
G1 F1057.3 X107.362 Y95.553 E26.64614
G0 F6000 X107.403 Y94.116
G1 F991.7 X107.471 Y93.137 E26.68563
G1 F1010.5 X107.219 Y93.137 E26.69558
G1 F1086 X106.756 Y93.104 E26.71264
G1 F1176.5 X106.061 Y93.104 E26.73622
G1 X106.097 Y93.626 E26.75397
G1 X106.236 Y93.512 E26.76007
G1 X106.756 Y93.512 E26.77771
G1 F1086 X107.094 Y93.575 E26.79035
G1 F991.7 X107.403 Y94.116 E26.81542
G0 F6000 X107.506 Y95.94
G0 X109.365 Y95.939
G0 X109.616 Y93.273
G0 X111.446 Y93.305
G0 X111.112 Y93.679
G0 X111.112 Y95.94
G0 X118.67 Y95.941
G0 X118.378 Y93.523
G0 X118.519 Y94.025
G1 F914.3 X118.552 Y93.162 E26.85312
G1 X117.545 Y93.162 E26.89708
G1 X117.563 Y93.553 E26.91417
G1 X117.692 Y93.454 E26.92127
G1 X118.075 Y93.597 E26.93912
G1 X118.44 Y93.884 E26.95938
G1 X118.519 Y94.025 E26.96644
G0 F6000 X118.378 Y93.523
G0 X118.673 Y95.942
G0 X122.867 Y95.941
G0 X122.95 Y93.738
G1 F973.6 X123.094 Y93.592 E26.97485
G1 F1057.3 X123.367 Y93.517 E26.98553
G1 F1153.8 X124.597 Y93.511 E27.02808
G1 F1137.4 X124.864 Y93.658 E27.03878
G1 F1132.1 X124.921 Y93.113 E27.0581
G1 F1153.8 X124.452 Y93.104 E27.07432
G1 F1167.9 X123.332 Y93.107 E27.1126
G1 F1057.3 X122.95 Y93.146 E27.12709
G1 F1066.7 X122.428 Y93.104 E27.14669
G1 F1162.2 X120.883 Y93.109 E27.19975
G1 F1106 X120.418 Y93.125 E27.21654
G1 F1064.3 X120.457 Y93.657 E27.23654
G1 F1086 X120.825 Y93.539 E27.25074
G1 F1134.8 X121.024 Y93.518 E27.25778
G1 F1148.3 X121.229 Y93.551 E27.265
G1 F1153.8 X121.456 Y93.512 E27.27296
G1 F1176.5 X122.428 Y93.512 E27.30594
G1 F1066.7 X122.806 Y93.592 E27.3204
G1 F973.6 X122.95 Y93.738 E27.3288
G1 F2700 E22.3288
G0 F6000 X123.065 Y96.143
G0 X128.024 Y95.926
G0 X128.002 Y93.662
G0 X127.354 Y93.299
G0 X141.728 Y93.272
G0 X141.728 Y141.728
G0 X117.5 Y141.9
G1 F2700 E27.3288
G1 F1200 X141.9 Y141.9 E28.14035
G1 X141.9 Y93.1 E29.76345
G1 F1188.1 X126.674 Y93.104 E30.27493
G1 F1176.5 X126.704 Y93.62 E30.29246
G1 X126.836 Y93.512 E30.29825
G1 X127.392 Y93.512 E30.31711
G1 F1188.1 X127.872 Y93.756 E30.3352
G1 F1200 X127.992 Y94.116 E30.34782
G1 X127.992 Y95.61 E30.39751
G1 X127.89 Y95.836 E30.40576
G1 X127.731 Y95.996 E30.41326
G1 X127.425 Y96.1 E30.42401
G1 X126.438 Y96.097 E30.45684
G1 X126.384 Y96.036 E30.45955
G1 X126.327 Y96.101 E30.46242
G1 X125.337 Y96.094 E30.49535
G1 X125.114 Y96.012 E30.50325
G1 X124.94 Y95.729 E30.5143
G1 X124.766 Y96.012 E30.52535
G1 X124.543 Y96.094 E30.53326
G1 X123.395 Y96.096 E30.57144
G1 X123.148 Y96.006 E30.58018
G1 X122.95 Y95.677 E30.59295
G1 X122.752 Y96.006 E30.60573
G1 X122.505 Y96.096 E30.61447
G1 X121.305 Y96.095 E30.65438
G1 X121.24 Y96.015 E30.65781
G1 X121.175 Y96.095 E30.66124
G1 X120.096 Y96.097 E30.69713
G1 X120.04 Y96.031 E30.7
G1 X119.984 Y96.097 E30.70288
G1 X119.069 Y96.098 E30.73332
G1 X118.811 Y96.01 E30.74238
G1 X118.651 Y95.75 E30.75254
G1 X118.493 Y96.012 E30.76271
G1 X118.187 Y96.104 E30.77334
G1 X117.225 Y96.099 E30.80534
G1 X117.17 Y96.032 E30.80822
G1 X117.113 Y96.1 E30.81117
G1 X116.031 Y96.098 E30.84716
G1 X115.832 Y96.044 E30.85402
G1 X115.724 Y95.888 E30.86033
G1 X115.616 Y96.044 E30.86664
G1 X115.37 Y96.1 E30.87503
G1 X114.215 Y96.099 E30.91345
G1 X114.126 Y95.986 E30.91823
G1 X114.037 Y96.099 E30.92301
G1 X113.042 Y96.1 E30.95611
G1 X112.874 Y96.067 E30.9618
G1 X112.8 Y95.971 E30.96583
G1 X112.726 Y96.067 E30.96987
G1 X112.528 Y96.1 E30.97654
G1 X111.45 Y96.093 E31.0124
G1 X111.167 Y95.965 E31.02273
G1 X111.035 Y95.813 E31.02942
G1 X110.95 Y95.553 E31.03852
G1 X110.948 Y94.021 E31.08948
G1 X111.125 Y93.689 E31.10199
G1 F1179.4 X111.443 Y93.517 E31.11422
G1 F1148.3 X112.687 Y93.511 E31.15746
G1 F1126.8 X112.804 Y93.572 E31.16214
G1 F1137.4 X112.975 Y93.517 E31.16844
G1 F1148.3 X114.015 Y93.511 E31.20459
G1 F1129.4 X114.124 Y93.564 E31.20887
G1 F1137.4 X114.275 Y93.517 E31.21442
G1 F1167.9 X115.36 Y93.512 E31.2515
G1 F1176.5 X115.543 Y93.695 E31.26028
G1 X115.576 Y93.104 E31.28036
G1 F1167.9 X114.24 Y93.107 E31.32602
G1 F1137.4 X114.124 Y93.114 E31.3301
G1 F1148.3 X113.868 Y93.104 E31.339
G1 F1167.9 X112.94 Y93.107 E31.37071
G1 F1137.4 X112.804 Y93.116 E31.3755
G1 F1142.9 X112.528 Y93.104 E31.38515
G1 F1188.1 X109.438 Y93.1 E31.48895
G1 F1200 X109.51 Y95.553 E31.57057
G1 X109.425 Y95.813 E31.57967
G1 X109.293 Y95.965 E31.58636
G1 X109.14 Y96.056 E31.59228
G1 X108.957 Y96.099 E31.59854
G1 X107.935 Y96.1 E31.63253
G1 X107.741 Y96.056 E31.63914
G1 X107.588 Y95.965 E31.64507
G1 F1176.5 X107.362 Y95.553 E31.66101
G1 X107.136 Y95.965 E31.67695
G1 F1200 X106.828 Y96.1 E31.68813
G1 X105.842 Y96.099 E31.72093
G1 X105.796 Y96.045 E31.72329
G1 X105.75 Y96.099 E31.72565
G1 X104.694 Y96.099 E31.76077
G1 X104.454 Y95.976 E31.76974
G1 X104.274 Y95.75 E31.77935
G1 X104.221 Y95.46 E31.78915
G1 X104.375 Y93.1 E31.86782
G1 X93.1 Y93.1 E32.24282
G1 X93.1 Y141.9 E33.86592
G1 X117.5 Y141.9 E34.67747
G0 F6000 X117.5 Y142.3
;TYPE:WALL-OUTER
G1 F1200 X142.3 Y142.3 E35.50232
G1 X142.3 Y92.7 E37.15202
G1 X126.245 Y92.7 E37.68601
G1 X126.325 Y94.054 E37.73112
G1 F1290.3 X126.384 Y95.49 E37.77558
G1 X126.639 Y94.076 E37.82002
G1 F1200 X126.836 Y93.916 E37.82846
G1 X127.392 Y93.916 E37.84696
G1 X127.552 Y93.996 E37.85291
G1 X127.592 Y94.116 E37.85711
G1 X127.586 Y95.551 E37.90484
G1 X127.505 Y95.666 E37.90952
G1 X127.426 Y95.698 E37.91236
G1 X126.513 Y95.696 E37.94272
G1 F1286.9 X126.384 Y95.515 E37.94962
G1 X126.255 Y95.696 E37.95651
G1 F1200 X125.348 Y95.698 E37.98668
G1 F1078.7 X125.184 Y95.521 E37.9956
G1 F963.9 X125.214 Y94.124 E38.05347
G1 F1057.3 X125.28 Y93.67 E38.07078
G1 F1200 X125.378 Y92.701 E38.10318
G1 X119.963 Y92.7 E38.28328
G1 X120.016 Y93.467 E38.30885
G1 F1188.1 X120.031 Y93.979 E38.32606
G1 F1034.5 X120.094 Y94.322 E38.33952
G1 X120.286 Y94.158 E38.34926
G1 F1188.1 X120.989 Y93.926 E38.37413
G1 F1200 X121.116 Y93.946 E38.3784
G1 F1153.8 X121.24 Y94.116 E38.38568
G1 X121.372 Y93.918 E38.39391
G1 F1200 X122.428 Y93.916 E38.42903
G1 X122.545 Y93.953 E38.43312
G1 F1041.2 X122.689 Y94.116 E38.44145
G1 F917.8 X122.689 Y95.523 E38.50264
G1 F1039 X122.536 Y95.669 E38.51076
G1 F1200 X122.428 Y95.7 E38.5145
G1 X121.401 Y95.693 E38.54866
G1 F1151.1 X121.24 Y95.518 E38.55691
G1 X121.072 Y95.7 E38.56549
G1 F1200 X120.175 Y95.696 E38.59533
G1 F1259.8 X120.04 Y95.515 E38.60248
G1 X119.905 Y95.696 E38.60964
G1 F1200 X119.088 Y95.697 E38.63681
G1 F1090.9 X118.889 Y95.522 E38.6465
G1 F912.5 X118.884 Y94.34 E38.6982
G1 F987.7 X118.988 Y93.862 E38.71797
G1 F1200 X119.032 Y92.7 E38.75665
G1 X117.062 Y92.7 E38.82217
G1 X117.123 Y94.04 E38.86678
G1 F1256.5 X117.17 Y95.492 E38.91293
G1 X117.468 Y94.071 E38.95905
G1 F1200 X117.673 Y93.916 E38.96759
G1 X117.789 Y93.959 E38.97171
G1 F987.7 X118.313 Y94.366 E38.99852
G1 F912.5 X118.411 Y95.524 E39.04935
G1 F1090.9 X118.279 Y95.674 E39.05666
G1 F1200 X118.171 Y95.704 E39.06039
G1 X117.306 Y95.695 E39.08916
G1 F1253.3 X117.17 Y95.515 E39.09634
G1 X117.034 Y95.695 E39.10353
G1 F1200 X116.011 Y95.698 E39.13755
G1 F1256.5 X115.906 Y95.516 E39.14423
G1 F1290.3 X115.927 Y94.305 E39.18169
G1 F1230.8 X116.004 Y92.7 E39.2338
